FINK
CUT[HOERT WENN IHR KEINEN GARTEN HABT]
REG[Europa, Mitteleuropa, Deutschland]
KEY[F0238  16  F 3/4]
MEL[-5_  1__.-7_1_2_  3_.21__0_
    -5_  2__.1#_2_3_  4__2__0_
    -5_  3__.2_3_5_  4#_.32__0_
    4#_  6__.2_3_4#_  6__5__0_
    7_  +1__.2_3_4#_  6__5__0_
    5_  4__.2_-7_-5_  1_.35__0_
    5_  4__.2_-7_-5_  1_.35__0_
    5_  +1__.6_5_3_  4_.21__0_ //] >>
FCT[Jugend - Lied, Natur]
